!!!!SEGMENT: pl-wtm--r-1664--003_stefani-jozef--okropnosc-czyli-nowa-lafarge-no-2-allegretto.krn
!!!cenid: 18xx:2058
!!!COM: Stefani, Józef
!!!COM-rism: pe30024097
!!!CDT: 1800/04/16-1876/03/19
!!!CNT: Polish
!!!OTL: Okropność czyli Nowa Lafarge – No. 2 - Allegretto
!!!PDT:
!!!AGN: Secular
!!!SMS-siglum: PL-Wtm
!!!SMS-shelfmark: R 1664
!!!SMS-variant:
!!!SMS-altvar:
!!!NIFC-rismID: 1001114328
!!!OMD: Allegretto
!!!system-decoration: {(s1,s2)}[(s3,s4,s5)][(s6,s7)][(s8)]{(s9,s10)}[(s11,s12)]{(s13,s14)}
**kern	**dynam	**kern	**dynam	**kern	**text	**dynam	**kern	**dynam	**kern	**dynam	**kern	**dynam	**kern	**dynam	**kern	**dynam	**kern	**dynam	**kern	**dynam	**kern	**dynam	**kern	**dynam	**kern	**kern	**dynam
*part14	*part14	*part13	*part13	*part12	*part12	*part12	*part11	*part11	*part10	*part10	*part9	*part9	*part8	*part8	*part7	*part7	*part6	*part6	*part5	*part5	*part4	*part4	*part3	*part3	*part2	*part1	*part1
*staff14	*	*staff13	*	*staff12	*staff12	*	*staff11	*	*staff10	*	*staff9	*	*staff8	*	*staff7	*	*staff6	*	*staff5	*	*staff4	*	*staff3	*	*staff2	*staff1	*
*I"C(ontra): Baſsi	*	*I"Violoncelli	*	*I"Szymon	*	*	*I"Viole	*	*I"Violino IIo.	*	*I"Violino Io.	*	*I"Timpani in d.a.	*	*I"Trombone	*	*I"Trombe in C	*	*I"Fagoto	*	*I"Corni [in C.]	*	*I"Clarinetti in C.	*	*I"Oboe	*I"Flauto	*
*I'B.	*	*I'Vc.	*	*I'Sz.	*	*	*I'Va	*	*	*	*	*	*I'Timp.	*	*I'Trb	*	*I'Tr-ba	*	*I'Fag.	*	*I'C. [in C.]	*	*I'Cl.	*	*I'Ob.	*I'Fl.	*
*clefF4	*	*clefF4	*	*clefG2	*	*	*clefC3	*	*clefG2	*	*clefG2	*	*clefF4	*	*clefF4	*	*clefG2	*	*clefF4	*	*clefG2	*	*clefG2	*	*clefG2	*clefG2	*
*Trd0c0	*	*	*	*	*	*	*	*	*	*	*	*	*	*	*	*	*	*	*	*	*	*	*	*	*	*	*
*k[f#]	*	*k[f#]	*	*k[f#]	*	*	*k[f#]	*	*k[f#]	*	*k[f#]	*	*k[f#]	*	*k[f#]	*	*k[f#]	*	*k[f#]	*	*k[f#c#]	*	*k[f#]	*	*k[f#]	*k[f#]	*
*M6/8	*	*M6/8	*	*M6/8	*	*	*M6/8	*	*M6/8	*	*M6/8	*	*M6/8	*	*M6/8	*	*M6/8	*	*M6/8	*	*M6/8	*	*M6/8	*	*M6/8	*M6/8	*
*	*	*	*	*	*	*	*	*	*2\right	*	*2\right	*	*	*	*	*	*2\right	*	*	*	*	*	*2\right	*	*2\right	*2\right	*
!LO:TX:t=P:problem:all\right:global	!	!LO:TX:t=P:problem:all\right:global	!	!	!	!	!	!	!	!	!	!	!	!	!	!	!	!	!	!	!	!	!	!	!	!	!
!	!	!	!	!	!	!	!	!	!	!	!LO:TX:t=P:problem:all\right:global	!	!LO:TX:t=P:problem:all\right:global	!	!LO:TX:t=P:problem:all\right:global	!	!	!	!	!	!	!	!	!	!	!	!
!	!	!	!	!	!	!	!	!	!	!	!	!	!	!	!	!	!	!	!	!	!	!	!LO:TX:t=P:problem:all\right:global	!	!LO:TX:t=P:problem:all\right:global	!LO:TX:t=P:problem:all\right:global	!
!	!	!	!	!	!	!	!	!	!	!	!	!	!	!	!	!	!LO:TX:t=P:problem:all\right:global	!	!LO:TX:t=P:problem:all\right:global	!	!LO:TX:t=P:problem:all\right:global	!	!	!	!	!	!
!	!	!	!	!LO:TX:t=P:problem:all\right:global	!	!	!LO:TX:t=P:problem:all\right:global	!	!LO:TX:t=P:problem:all\right:global	!	!	!	!	!	!	!	!	!	!	!	!	!	!	!	!	!	!
!	!	!	!	!	!	!	!	!	!	!	!	!	!	!	!	!	!	!	!	!	!	!	!	!	!	!LO:TX:a:Bi:t=No 2:problem:nad całą partyturą:problem	!
!	!	!	!	!	!	!	!	!	!	!	!	!	!	!	!	!	!	!	!	!	!	!	!	!	!	!LO:TX:t=P:problem:w źródle klamry przy Violoncelli i C:Baſsi, Violini (violino primo, violino secundo) oraz Flauto i Oboe; reszta głosów pogrupowana w kodzie	!
!	!	!	!	!	!	!	!	!	!	!	!	!LO:DY:b:rj	!	!	!	!	!	!	!	!	!	!	!	!	!	!	!LO:DY:b:rj
8r	.	8r	.	8r	.	.	8r	.	8d'</L	.	(>8dd'>\L	mf	8r	.	8r	.	8d/L	.	8r	.	8r	.	8d'</L	.	8dd'>\L	8dd\L	mf
8r	.	8r	.	8r	.	.	8r	.	8d'</J	.	8dd'>\J)	.	8r	.	8r	.	8d/J	.	8r	.	8r	.	8d'</J	.	8dd'>\J	8dd\J	.
=1	=1	=1	=1	=1	=1	=1	=1	=1	=1	=1	=1	=1	=1	=1	=1	=1	=1	=1	=1	=1	=1	=1	=1	=1	=1	=1	=1
*	*	*	*	*	*	*	*	*	*	*	*	*	*	*	*	*	*	*	*	*	*^	*	*	*	*	*	*
*	*	*2\right	*	*	*	*	*2\right	*	*	*	*	*	*	*	*	*	*	*	*2\right	*	*2\right	*2\right	*	*	*	*	*	*
!	!	!LO:TX:t=P:problem:w źródle odnośnik //	!	!	!	!	!	!	!	!	!	!	!	!	!	!	!	!	!	!	!	!	!	!	!	!	!	!
!	!	!	!	!	!	!	!	!LO:DY:b:rj	!	!	!	!	!	!	!	!	!	!	!	!	!	!	!	!	!	!	!	!
2.r	.	4G\	.	2.r	.	.	(>4d 4G'>\	mf	(<4b'</	.	(>4bb'>\	.	2.r	.	2.r	.	4b/	.	4G\	.	4dd 4g/	4.ryy	.	4b/	.	4bb\	4bb\	.
.	.	8B\	.	.	.	.	8d 8B'>\)	.	8g'</)	.	8gg'>\)	.	.	.	.	.	8g/	.	8B\	.	8dd 8g/	.	.	8g/	.	8gg\	8gg\	.
.	.	4c\	.	.	.	.	(>4d 4c'>\	.	(<4f#'</	.	(>4ff#'>\	.	.	.	.	.	4f#/	.	4c\	.	4dd/	4dd\	.	4f#/	.	4ff#\	4ff#\	.
.	.	8c\	.	.	.	.	8d 8c'>\)	.	8a 8f#/)	.	8aa'>\)	.	.	.	.	.	8a/	.	8c\	.	8dd/	8dd\	.	8a/	.	8aa\	8aa\	.
=2	=2	=2	=2	=2	=2	=2	=2	=2	=2	=2	=2	=2	=2	=2	=2	=2	=2	=2	=2	=2	=2	=2	=2	=2	=2	=2	=2	=2
*	*	*	*	*	*	*	*	*	*	*	*	*	*	*	*	*	*	*	*	*	*	*	*	*^	*	*	*	*
*2\right	*	*	*	*	*	*	*	*	*	*	*	*	*	*	*2\right	*	*	*	*	*	*	*	*	*	*	*	*	*	*
4r	.	8B\L	.	2.r	.	.	8dL 8B\	.	8g/L	.	8gg'>\L	.	2.r	.	4r	.	8g/L	.	8B\L	.	8dd 8g/L	4ryy	.	8g/L	4.ryy	.	8gg\L	8gg\L	.
.	.	8B\J	.	.	.	.	8dJ 8B\	.	8g/J	.	8dd'>\J	.	.	.	.	.	8d/J	.	8B\J	.	8dd 8g/J	.	.	8d/J	.	.	8dd\J	8dd\J	.
8r	.	8r	.	.	.	.	8r	.	8r	.	8r	.	.	.	8r	.	8r	.	8r	.	8r	8ryy	.	8r	.	.	8r	8r	.
!	!	!	!	!	!	!	!	!	!	!	!	!	!	!	!	!	!	!	!	!	!	!	!	!	!LO:TX:a:t=P:note position:problem	!	!	!	!
!	!	!	!LO:DY:b:rj	!	!	!	!	!	!	!	!	!	!	!	!	!LO:DY:b:rj	!	!	!	!LO:DY:b:rj	!	!	!LO:DY:b:rj	!	!	!	!	!	!LO:DY:b:rj
8C/	.	8C/	f	.	.	.	8r	.	8r	.	8r	.	.	.	4.C/	f	8r	.	(>4.c\	f	4.ee/	4.cc#\	f	16a/LL	4.a\	.	(>16ee\LL	(>16eee\LL	f
.	.	.	.	.	.	.	.	.	.	.	.	.	.	.	.	.	.	.	.	.	.	.	.	16b/	.	.	16dd\	16ddd\	.
8r	.	8r	.	.	.	.	8r	.	8r	.	8r	.	.	.	.	.	8r	.	.	.	.	.	.	16cc/	.	.	16cc\	16ccc\	.
.	.	.	.	.	.	.	.	.	.	.	.	.	.	.	.	.	.	.	.	.	.	.	.	16dd/J	.	.	16b\J)	16bb\J)	.
!	!	!	!	!	!	!	!	!	!	!	!	!LO:DY:b:rj	!	!	!	!	!	!LO:DY:b	!	!	!	!	!	!	!	!	!	!	!
8r	.	8r	.	.	.	.	8a 8e 8c\	.	8cc 8e/	.	8aa 8cc 8e\	f	.	.	.	.	8a/	sf	.	.	.	.	.	8ee/J	.	.	8a'>\J	8aa'>\J	.
=3	=3	=3	=3	=3	=3	=3	=3	=3	=3	=3	=3	=3	=3	=3	=3	=3	=3	=3	=3	=3	=3	=3	=3	=3	=3	=3	=3	=3	=3
*	*	*	*	*	*	*	*	*	*	*	*	*	*2\right	*	*	*	*	*	*	*	*	*	*	*	*	*	*	*	*
!	!	!	!	!	!	!	!	!	!	!	!	!	!	!	!	!	!	!	!	!	!	!	!	!	!LO:TX:a:t=P:note position:problem	!	!	!	!
!	!	!LO:TX:t=P:problem:w źródle dwa takty zapisane odnośnikiem do kontrabasu: //	!	!	!	!	!	!	!	!	!	!	!	!	!	!	!	!	!	!	!	!	!	!	!	!	!	!	!
8D\	.	8D\yy	.	2.r	.	f	8r	.	8r	.	8r	.	8r	.	4.D\	.	8r	.	4.B\	.	4.dd/	4.dd\	.	16g/LL	4.g\	.	(>16dd\LL	(>16ddd\LL	.
.	.	.	.	.	.	.	.	.	.	.	.	.	.	.	.	.	.	.	.	.	.	.	.	16a/	.	.	16cc\	16ccc\	.
8r	.	8ryy	.	.	.	.	8r	.	8r	.	8r	.	8r	.	.	.	8r	.	.	.	.	.	.	16b/	.	.	16b\	16bb\	.
.	.	.	.	.	.	.	.	.	.	.	.	.	.	.	.	.	.	.	.	.	.	.	.	16cc/J	.	.	16a\J)	16aa\J)	.
!	!	!	!	!	!	!	!	!	!	!	!	!	!	!LO:DY:b:rj	!	!	!	!LO:DY:b	!	!	!	!	!	!	!	!	!	!	!
8r	.	8ryy	.	.	.	.	8g 8B\	.	8b 8d/	.	8gg 8b 8d\	.	8D\	f	.	.	8g/	sf	.	.	.	.	.	8dd/J	.	.	8g'>\J	8gg'>\J	.
!	!	!	!	!	!	!	!	!	!	!	!	!	!	!	!	!	!	!	!	!	!	!	!	!	!LO:TX:a:t=P:note position:problem	!	!	!	!
!	!	!	!	!	!	!	!	!	!	!	!	!	!	!	!	!	!	!	!LO:TX:a:t=P:w źródle łuk kończy się za nutą:problem	!	!	!	!	!	!	!	!	!	!
8D\	.	8D\yy	.	.	.	.	8r	.	8r	.	8r	.	8r	.	4.D\	.	8r	.	4.A\)	.	4.dd/	4.cc#\	.	16dd/LL	4.f#\	.	(<16dd/LL	(>16ddd\LL	.
.	.	.	.	.	.	.	.	.	.	.	.	.	.	.	.	.	.	.	.	.	.	.	.	16cc/	.	.	16cc/	16ccc\	.
8r	.	8ryy	.	.	.	.	8r	.	8r	.	8r	.	8r	.	.	.	8r	.	.	.	.	.	.	16b/	.	.	16b/	16bb\	.
.	.	.	.	.	.	.	.	.	.	.	.	.	.	.	.	.	.	.	.	.	.	.	.	16a/	.	.	16a/	16aa\	.
!	!	!	!	!	!	!	!	!	!	!	!	!	!	!LO:DY:b:rj	!	!	!	!LO:DY:b	!	!	!	!	!	!	!	!	!	!	!
8r	.	8ryy	.	.	.	.	8f# 8A\	.	8cc 8d/	.	8ff# 8a\	.	8D\	f	.	.	8dd\	sf	.	.	.	.	.	16g/	.	.	16g/	16gg\	.
!	!	!	!	!	!	!	!	!	!	!	!	!	!	!	!	!	!	!	!	!	!	!	!	!	!	!	!	!LO:TX:a:t=P:w źródle łuk kończy się za kreską taktową:problem	!
.	.	.	.	.	.	.	.	.	.	.	.	.	.	.	.	.	.	.	.	.	.	.	.	16f#/JJ	.	.	16f#/JJ)	16ff#\JJ)	.
!!LO:PB:g=original
*	*	*	*	*	*	*	*	*	*	*	*	*	*	*	*	*	*	*	*	*	*	*	*	*v	*v	*	*	*	*
=4	=4	=4	=4	=4	=4	=4	=4	=4	=4	=4	=4	=4	=4	=4	=4	=4	=4	=4	=4	=4	=4	=4	=4	=4	=4	=4	=4	=4
!	!	!	!	!LO:TX:a:Bi:t=Müller	!	!	!	!	!	!	!	!	!	!	!	!	!	!	!	!	!	!	!	!	!	!	!	!
8G\	.	8G\yy	.	4r	.	.	8g 8B\	.	8b 8d/	.	8gg 8b\	.	4r	.	8G\	.	8g/	.	8B\	.	8dd 8g/	4.ryy	.	8g/	.	8gg\	8gg\	.
8r	.	8ryy	.	.	.	.	8r	.	8r	.	8r	.	.	.	8r	.	8r	.	8r	.	8r	.	.	8r	.	8r	8r	.
!	!	!	!	!	!	!	!	!	!	!	!	!	!	!	!	!	!LO:TX:a:t=P:w źródle fermata znajduję się za pauzą:problem	!	!	!	!	!	!	!	!	!	!	!
8r	.	8ryy	.	8r	.	.	8r	.	8r	.	8r	.	8r	.	8r	.	8r;>	.	8r	.	8r	.	.	8r	.	8r	8r	.
!LO:TX:a:t=P:w źródle fermata znajduję się za nutą:problem	!	!LO:TX:a:t=P:w źródle fermata znajduję się za nutą:problem	!	!	!	!	!LO:TX:a:t=P:w źródle fermata znajduję się za nutą:problem	!	!	!	!	!	!	!	!	!	!	!	!	!	!	!	!	!	!	!	!	!
!	!	!	!	!	!	!	!	!	!	!	!	!	!LO:TX:a:t=P:w źródle fermata znajduję się za nutą:problem	!	!LO:TX:a:t=P:w źródle fermata znajduję się za nutą:problem	!	!LO:TX:a:t=P:w źródle fermata znajduję się za nutą:problem	!	!	!	!	!	!	!	!	!	!	!
!	!	!	!	!	!	!	!	!	!LO:TX:a:t=P:w źródle fermata znajduję się za nutą:problem	!	!LO:TX:a:t=P:w źródle fermata znajduję się za nutą:problem	!	!	!	!	!	!	!	!	!	!	!	!	!	!	!	!	!
!	!	!	!	!	!	!	!	!	!	!	!	!	!	!	!	!	!	!	!	!	!	!	!	!	!	!LO:TX:a:t=P:w źródle fermata znajduję się za nutą:problem	!LO:TX:a:t=P:w źródle fermata znajduję się za nutą:problem	!
!	!	!	!	!	!	!	!	!	!	!	!	!	!	!	!	!	!	!	!LO:TX:a:t=P:w źródle fermata znajduję się za nutą:problem	!	!	!LO:TX:a:t=P:w źródle fermata znajduję się za nutą:problem	!	!LO:TX:a:t=P:w źródle fermata znajduję się za nutą:problem	!	!	!	!
8D;>\	.	8D;>\yy	.	8r;>	.	.	8f# 8A 8D;>\	.	8ff# 8a 8d;>\	.	8ddd 8dd;>\	.	8D;>\	.	8D;>\	.	8f#;>/	.	8A;>\	.	8dd;>/	8dd\	.	8ff# 8a;>\	.	8ff#;>\	8ddd;>\	.
8r	.	8ryy	.	8d/	Gdy	.	8r	.	8r	.	8r	.	8r	.	8r	.	8r	.	8r	.	8r	8rcyy	.	8r	.	8r	8r	.
8r	.	8ryy	.	8d/	się	.	8r	.	8r	.	8r	.	8r	.	8r	.	8r	.	8r	.	8r	8rcyy	.	8r	.	8r	8r	.
*	*	*	*	*	*	*	*	*	*	*	*	*	*	*	*	*	*	*	*	*	*v	*v	*	*	*	*	*	*
=5	=5	=5	=5	=5	=5	=5	=5	=5	=5	=5	=5	=5	=5	=5	=5	=5	=5	=5	=5	=5	=5	=5	=5	=5	=5	=5	=5
!	!	!	!LO:DY:b:rj	!	!	!	!	!	!	!	!	!LO:DY:b:rj	!	!	!	!	!	!	!	!	!	!	!	!	!	!	!
2.r	.	4G\	p	4b/	zwię-	.	4d 4G\	.	8g'</	.	(<4b'</	p	2.r	.	2.r	.	2.r	.	2.r	.	2.r	.	2.r	.	2.r	2.r	.
.	.	.	.	.	.	.	.	.	(<8g/L	.	.	.	.	.	.	.	.	.	.	.	.	.	.	.	.	.	.
.	.	8B\	.	8g/	-ksza	.	8d 8B\	.	8d/J)	.	8g'</)	.	.	.	.	.	.	.	.	.	.	.	.	.	.	.	.
.	.	4c\	.	4f#/	licz-	.	4d 4c\	.	8d'</L	.	(<4f#'</	.	.	.	.	.	.	.	.	.	.	.	.	.	.	.	.
.	.	.	.	.	.	.	.	.	(<8d/	.	.	.	.	.	.	.	.	.	.	.	.	.	.	.	.	.	.
.	.	8c\	.	8a/	-ba	.	8d 8c\	.	8f#/J)	.	8a'</)	.	.	.	.	.	.	.	.	.	.	.	.	.	.	.	.
=6	=6	=6	=6	=6	=6	=6	=6	=6	=6	=6	=6	=6	=6	=6	=6	=6	=6	=6	=6	=6	=6	=6	=6	=6	=6	=6	=6
2.r	.	4B\	.	8g/	la-	.	4d 4B\	.	4g/	.	8g/L	.	2.r	.	2.r	.	2.r	.	2.r	.	8r	.	2.r	.	2.r	2.r	.
!	!	!	!	!	!	!	!	!	!	!	!	!	!	!	!	!	!	!	!	!	!	!LO:DY:b:rj	!	!	!	!	!
.	.	.	.	8d/	-tek	.	.	.	.	.	8d/J	.	.	.	.	.	.	.	.	.	8dd\L	p	.	.	.	.	.
.	.	8r	.	8r	.	.	8r	.	8r	.	8r	.	.	.	.	.	.	.	.	.	8dd\J	.	.	.	.	.	.
.	.	4r	.	8r	.	.	4r	.	4r	.	4r	.	.	.	.	.	.	.	.	.	4.dd\	.	.	.	.	.	.
.	.	.	.	8d/	Dro-	.	.	.	.	.	.	.	.	.	.	.	.	.	.	.	.	.	.	.	.	.	.
.	.	8r	.	8d/	-gą	.	8r	.	8r	.	8r	.	.	.	.	.	.	.	.	.	.	.	.	.	.	.	.
=7	=7	=7	=7	=7	=7	=7	=7	=7	=7	=7	=7	=7	=7	=7	=7	=7	=7	=7	=7	=7	=7	=7	=7	=7	=7	=7	=7
2.r	.	4G\	.	4b/	by-	.	4d 4G\	.	8g'</L	.	(<4b'</	.	2.r	.	2.r	.	2.r	.	2.r	.	2.r	.	2.r	.	2.r	2.r	.
.	.	.	.	.	.	.	.	.	(<8g/	.	.	.	.	.	.	.	.	.	.	.	.	.	.	.	.	.	.
.	.	8B\	.	8g/	-wa	.	8d 8B\	.	8d/J)	.	8g'</)	.	.	.	.	.	.	.	.	.	.	.	.	.	.	.	.
.	.	4c\	.	4f#/	każ-	.	4d 4c\	.	8d'</L	.	(<4f#'</	.	.	.	.	.	.	.	.	.	.	.	.	.	.	.	.
.	.	.	.	.	.	.	.	.	(<8d/	.	.	.	.	.	.	.	.	.	.	.	.	.	.	.	.	.	.
.	.	8c\	.	8a/	-da	.	8d 8c\	.	8f#/J)	.	8a'</)	.	.	.	.	.	.	.	.	.	.	.	.	.	.	.	.
=8	=8	=8	=8	=8	=8	=8	=8	=8	=8	=8	=8	=8	=8	=8	=8	=8	=8	=8	=8	=8	=8	=8	=8	=8	=8	=8	=8
2.r	.	4B\	.	8g/	chwil-	.	4d 4B\	.	4g/	.	8g/L	.	2.r	.	2.r	.	2.r	.	2.r	.	8r	.	2.r	.	2.r	2.r	.
.	.	.	.	8d/	-ka	.	.	.	.	.	8d/J	.	.	.	.	.	.	.	.	.	8dd\L	.	.	.	.	.	.
.	.	8r	.	8r	.	.	8r	.	8r	.	8r	.	.	.	.	.	.	.	.	.	8dd\J	.	.	.	.	.	.
.	.	4r	.	8r	.	.	4r	.	4r	.	4r	.	.	.	.	.	.	.	.	.	4.dd\	.	.	.	.	.	.
.	.	.	.	8g/	Więc	.	.	.	.	.	.	.	.	.	.	.	.	.	.	.	.	.	.	.	.	.	.
.	.	8r	.	8b/	się	.	8r	.	8r	.	8r	.	.	.	.	.	.	.	.	.	.	.	.	.	.	.	.
!!LO:PB:g=original
=9	=9	=9	=9	=9	=9	=9	=9	=9	=9	=9	=9	=9	=9	=9	=9	=9	=9	=9	=9	=9	=9	=9	=9	=9	=9	=9	=9
!	!	!LO:TX:t=P:problem:w źródle partia wiolonczeli do końca zapisana odnośnikiem do kontrabasu: //	!	!	!	!	!	!	!	!	!	!	!	!	!	!	!	!	!	!	!	!	!	!	!	!	!
8C#X/	.	8C#X/yy	.	8a/	ja	.	8r	.	8r	.	2.r	.	2.r	.	2.r	.	2.r	.	(>2.A\	.	2.r	.	2.r	.	2.r	2.r	.
8r	.	8ryy	.	8r	.	.	8e\L	.	8gL 8A/	.	.	.	.	.	.	.	.	.	.	.	.	.	.	.	.	.	.
8r	.	8ryy	.	8e/	na	.	8e\J	.	8gJ 8A/	.	.	.	.	.	.	.	.	.	.	.	.	.	.	.	.	.	.
8C#/	.	8C#/yy	.	4e/	kształt	.	8r	.	8r	.	.	.	.	.	.	.	.	.	.	.	.	.	.	.	.	.	.
8r	.	8ryy	.	.	.	.	8e\L	.	8gL 8A/	.	.	.	.	.	.	.	.	.	.	.	.	.	.	.	.	.	.
8r	.	8ryy	.	8g/	mo-	.	8e\J	.	8gJ 8A/	.	.	.	.	.	.	.	.	.	.	.	.	.	.	.	.	.	.
=10	=10	=10	=10	=10	=10	=10	=10	=10	=10	=10	=10	=10	=10	=10	=10	=10	=10	=10	=10	=10	=10	=10	=10	=10	=10	=10	=10
*	*	*	*	*	*	*	*	*	*	*	*	*	*	*	*	*	*	*	*	*	*	*	*^	*	*	*	*
8D\	.	8D\yy	.	8f#/	-tyl-	.	8r	.	8r	.	8r	.	2.r	.	2.r	.	2.r	.	8D\)	.	2.r	.	8rg	2.re	.	8r	8r	.
8r	.	8ryy	.	8a/	-ka,	.	8d\L	.	8f#L 8A/	.	8r	.	.	.	.	.	.	.	8r	.	.	.	8rg	.	.	8r	8r	.
8r	.	8ryy	.	8r	.	.	8d\J	.	8f#J 8A/	.	(>32aa\LLL	.	.	.	.	.	.	.	8r	.	.	.	(<32a/LLL	.	.	(>32aa\LLL	(>32aa\LLL	.
.	.	.	.	.	.	.	.	.	.	.	32gg\	.	.	.	.	.	.	.	.	.	.	.	32g/	.	.	32gg\	32gg\	.
.	.	.	.	.	.	.	.	.	.	.	32ff#\	.	.	.	.	.	.	.	.	.	.	.	32f#/	.	.	32ff#\	32ff#\	.
.	.	.	.	.	.	.	.	.	.	.	32ee\JJJ	.	.	.	.	.	.	.	.	.	.	.	32e/JJ	.	.	32ee\JJ	32ee\JJ	.
8D\	.	8D\yy	.	4r	.	.	8d\	.	8f# 8A/	.	8dd\)	.	.	.	.	.	.	.	4r	.	.	.	8d/J)	.	.	8dd\J)	8dd\J)	.
8r	.	8ryyy	.	.	.	.	8r	.	8r	.	8r	.	.	.	.	.	.	.	.	.	.	.	8rg	.	.	8r	8r	.
!	!	!	!	!	!	!	!	!	!	!	!	!	!	!	!	!	!	!	!	!	!	!	!	!	!	!	!	!LO:DY:b:rj
8G\	.	8G\yy	.	8b/	prze-	.	8d 8G\	.	8g 8B/	.	8b\	.	.	.	.	.	.	.	8r	.	.	.	8b/	.	.	8b\	8bb\	p
=11	=11	=11	=11	=11	=11	=11	=11	=11	=11	=11	=11	=11	=11	=11	=11	=11	=11	=11	=11	=11	=11	=11	=11	=11	=11	=11	=11	=11
8A\	.	8A\yy	.	8a/L	-no-	.	8r	.	8r	.	(>8a\L	.	2.r	.	2.r	.	2.r	.	2.r	.	2.r	.	(<8a/L	2.re	.	(>8a\L	(>8aa\L	.
8r	.	8ryy	.	8dd/J	.	.	8d\L	.	8f#L 8A/	.	8dd\)	.	.	.	.	.	.	.	.	.	.	.	8dd/)	.	.	8dd\)	8ddd\)	.
8r	.	8ryy	.	8f#/	-szę	.	8d\J	.	8f#J 8A/	.	8f#'>\J	.	.	.	.	.	.	.	.	.	.	.	8f#'</J	.	.	8ff#'>\J	8ff#'>\J	.
8AA/	.	8AA/yy	.	8g/	z kwiat-	.	8r	.	8r	.	(<8g/L	.	.	.	.	.	.	.	.	.	.	.	(<8g/L	.	.	(>8gg\L	(>8gg\L	.
8r	.	8ryy	.	8.e/	-ka	.	8c#X\L	.	8gL 8A/	.	8e/J)	.	.	.	.	.	.	.	.	.	.	.	8e/J)	.	.	8ee\J)	8ee\J)	.
8r	.	8ryy	.	.	.	.	8c#\J	.	8gJ 8A/	.	8r	.	.	.	.	.	.	.	.	.	.	.	8r	.	.	8r	8r	.
.	.	.	.	16a/	na	.	.	.	.	.	.	.	.	.	.	.	.	.	.	.	.	.	.	.	.	.	.	.
=12	=12	=12	=12	=12	=12	=12	=12	=12	=12	=12	=12	=12	=12	=12	=12	=12	=12	=12	=12	=12	=12	=12	=12	=12	=12	=12	=12	=12
8D\L	.	8D\Lyy	.	8a/	kwia-	.	8r	.	8r	.	8r	.	2.r	.	4r	.	4r	.	4r	.	4r	.	8rg	2ryy	.	4r	8r	.
8A\	.	8A\yy	.	8d/	-tek	.	8d\L	.	8f#L 8A/	.	(<16d/LL	.	.	.	.	.	.	.	.	.	.	.	(<16d/LL	.	.	.	(>16dd\LL	.
.	.	.	.	.	.	.	.	.	.	.	32e/L	.	.	.	.	.	.	.	.	.	.	.	32e/L	.	.	.	32ee\L	.
.	.	.	.	.	.	.	.	.	.	.	32f#/	.	.	.	.	.	.	.	.	.	.	.	32f#/	.	.	.	32ff#\	.
8F#\J	.	8F#\Jyy	.	8r	.	.	8d\J	.	8f#J 8A/	.	32g/	.	.	.	8r	.	8r	.	8r	.	8r	.	32g/	.	.	8r	32gg\	.
.	.	.	.	.	.	.	.	.	.	.	32a/	.	.	.	.	.	.	.	.	.	.	.	32a/	.	.	.	32aa\	.
.	.	.	.	.	.	.	.	.	.	.	32b/	.	.	.	.	.	.	.	.	.	.	.	32b/	.	.	.	32bb\	.
.	.	.	.	.	.	.	.	.	.	.	32cc#X/JJJ)	.	.	.	.	.	.	.	.	.	.	.	32cc#X/JJJ)	.	.	.	32ccc#X\JJJ	.
8D\	.	8D\yy	.	4r	.	.	8d\	.	8f# 8A/	.	8dd\	.	.	.	4r	.	4r	.	4r	.	4r	.	8dd/	.	.	8r	8ddd\	.
8r	.	8ryy	.	.	.	.	8r	.	8r	.	8r	.	.	.	.	.	.	.	.	.	.	.	8r	8ryy	.	8r	8r)	.
!	!	!	!	!	!	!	!	!	!	!	!	!	!	!	!	!	!	!	!	!	!	!LO:DY:b:rj	!	!	!	!	!	!LO:DY:b:rj
8G^<\	.	8G^<\yy	.	8r	.	.	8d\	.	8g 8B/	.	8b^<\	.	.	.	8G\	.	8b/	.	8G\	.	8dd 8g/	f	8b/	8g\	.	8b/	8bb\	f
!!LO:PB:g=original
=13	=13	=13	=13	=13	=13	=13	=13	=13	=13	=13	=13	=13	=13	=13	=13	=13	=13	=13	=13	=13	=13	=13	=13	=13	=13	=13	=13	=13
*	*	*	*	*	*	*	*	*	*	*	*	*	*	*	*	*	*	*	*	*	*^	*	*	*	*	*	*	*
!LO:TX:a:t=P:w źródle forte dopisane ołówkiem:problem	!	!	!	!	!	!	!	!	!	!	!	!	!	!	!	!	!	!	!	!	!	!	!	!	!	!	!	!	!
!	!	!	!	!	!	!	!	!	!	!	!	!	!	!	!	!	!	!	!LO:TX:a:t=P:w źródle forte dopisane ołówkiem:problem	!	!	!	!	!	!	!	!	!LO:TX:a:t=P:w źródle forte dopisane ołówkiem:problem	!
!	!LO:DY:b:rj	!	!	!	!	!	!	!	!	!LO:DY:b:rj	!	!LO:DY:b:rj	!	!	!	!	!	!	!	!LO:DY:b:rj	!	!	!	!	!	!	!	!	!LO:DY:b:rj
4A\	f	4A\yy	.	2.r	.	.	8r	.	8r	f	(>8a\L	f	4AA/	.	4A\	.	(<8a/L	.	2.A\	f	4.dd/	4.dd\	.	8a/L	4f#\	.	(>8aa\L	(>8aa\L	f
.	.	.	.	.	.	.	8d\L	.	8f#L 8A/	.	8dd\)	.	.	.	.	.	8f#/)	.	.	.	.	.	.	8dd/	.	.	8ff#\)	8ddd\)	.
8r	.	8ryy	.	.	.	.	8d\J	.	8f#J 8A/	.	8ff#'>\J	.	8r	.	8r	.	8d'</J	.	.	.	.	.	.	8f#/J	8d\	.	8dd'>\J	8ff#'>\J	.
4AA/	.	4AA/yy	.	.	.	.	8r	.	8r	.	(>16bb\LL	.	4AA/	.	4AA/	.	4.e/	.	.	.	4.ee/	4.cc#X\	.	16b/LL	4.g\	.	(>16bb\LL	(>16bb\LL	.
.	.	.	.	.	.	.	.	.	.	.	16aa\	.	.	.	.	.	.	.	.	.	.	.	.	16a/	.	.	16aa\	16aa\	.
.	.	.	.	.	.	.	8e\L	.	8gL 8A/	.	16gg\	.	.	.	.	.	.	.	.	.	.	.	.	16g/	.	.	16gg\	16gg\	.
.	.	.	.	.	.	.	.	.	.	.	16ee\	.	.	.	.	.	.	.	.	.	.	.	.	16e/	.	.	16ee\	16ee\	.
8r	.	8ryy	.	.	.	.	8e\J	.	8gJ 8A/	.	16b\	.	8r	.	8r	.	.	.	.	.	.	.	.	16B/	.	.	16b\	16b\	.
.	.	.	.	.	.	.	.	.	.	.	16cc#X\JJ)	.	.	.	.	.	.	.	.	.	.	.	.	16c#X/JJ	.	.	16cc#X\JJ)	16cc#X\JJ)	.
=14	=14	=14	=14	=14	=14	=14	=14	=14	=14	=14	=14	=14	=14	=14	=14	=14	=14	=14	=14	=14	=14	=14	=14	=14	=14	=14	=14	=14	=14
!	!	!	!	!	!	!	!	!	!	!	!	!	!	!	!	!	!	!	!	!	!	!	!	!	!LO:TX:a:t=P:problem:note position	!	!	!	!
8D\	.	8D\yy	.	4r	.	.	8d\	.	8f# 8A/	.	8dd\	.	8D/	.	8D\	.	8d/	.	8A\	.	8dd/	8dd\	.	8d/	8f#\	.	8dd\	8dd\	.
!	!	!	!	!	!	!	!	!	!	!	!	!	!	!	!	!	!	!	!	!	!	!	!LO:HP:b	!	!	!	!	!	!
8r	.	8ryy	.	.	.	.	8D/L	.	8r	.	8r	.	8r	.	8r	.	8r	.	8r	.	8dd\L	4ryy	>	8r	8rcyy	.	8r	8r	.
8r	.	8ryy	.	8r	.	.	8D/J	.	8r	.	8r	.	8r	.	8r	.	8r	.	8r	.	8dd\J	.	.	8r	8rcyy	.	8r	8r	.
4r	.	4ryy	.	8r	.	.	4.D/	.	4r	.	4r	.	4r	.	4r	.	4r	.	4r	.	[>4.dd\	[<4.dd\	.	8r	4rc	.	4r	8r	.
!	!	!	!	!	!	!	!	!	!	!	!	!	!	!	!	!	!	!	!	!	!	!	!	!	!	!	!	!	!LO:DY:b:rj
.	.	.	.	8d/	Dziś	.	.	.	.	.	.	.	.	.	.	.	.	.	.	.	.	.	.	8d'</L	.	.	.	8dd'>\L	p
8r	.	8ryy	.	8d/	spo-	.	.	.	8r	.	8r	.	8r	.	8r	.	8r	.	8r	.	.	.	]	8d'</J	8rG	.	8r	8dd'>\J	.
=15	=15	=15	=15	=15	=15	=15	=15	=15	=15	=15	=15	=15	=15	=15	=15	=15	=15	=15	=15	=15	=15	=15	=15	=15	=15	=15	=15	=15	=15
!	!LO:DY:b:rj	!	!LO:DY:b:rj	!	!	!	!	!	!	!	!	!	!	!	!	!	!	!	!	!	!	!	!LO:DY:b:rj	!	!	!	!	!	!
8D\	p	8D\yy	pyy	4a/	-czo-	.	8r	.	8r	.	8r	.	2.r	.	2.r	.	2.r	.	2.r	.	2.dd/_>	2.dd\_<	p	(>4a/	2.re	.	2.r	(>4aa\	.
!	!	!	!	!	!	!	!	!	!	!LO:DY:b:rj	!	!LO:DY:a:rj	!	!	!	!	!	!	!	!	!	!	!	!	!	!	!	!	!
8r	.	8ryy	.	.	.	.	8d\L	.	8A/L	p	8f#/L	p	.	.	.	.	.	.	.	.	.	.	.	.	.	.	.	.	.
8r	.	8ryy	.	8f#/	-łem	.	8d\J	.	8A/J	.	8f#/J	.	.	.	.	.	.	.	.	.	.	.	.	8f#/)	.	.	.	8ff#\)	.
8D\	.	8D\yy	.	4g/	już	.	8r	.	8r	.	8r	.	.	.	.	.	.	.	.	.	.	.	.	(>4g/	.	.	.	4gg\	.
8r	.	8ryy	.	.	.	.	8d\L	.	8B/L	.	8g/L	.	.	.	.	.	.	.	.	.	.	.	.	.	.	.	.	.	.
8r	.	8ryy	.	8b/	na	.	8d\J	.	8B/J	.	8g/J	.	.	.	.	.	.	.	.	.	.	.	.	8b/)	.	.	.	8bb\	.
=16	=16	=16	=16	=16	=16	=16	=16	=16	=16	=16	=16	=16	=16	=16	=16	=16	=16	=16	=16	=16	=16	=16	=16	=16	=16	=16	=16	=16	=16
8D\	.	8D\yy	.	8b/	ró-	.	8r	.	8r	.	8r	.	2.r	.	2.r	.	2.r	.	8r	.	8dd\L]	8dd\L]	.	(>8b/L	8rc	.	2.r	(>8bb\L	.
!	!	!	!	!	!	!	!	!	!	!	!	!	!	!	!	!	!	!	!	!LO:DY:b:rj	!	!	!	!	!	!	!	!	!
8r	.	8ryy	.	8a/	-ży	.	8d\L	.	8A/L	.	8f#/L	.	.	.	.	.	.	.	8A\L	p	8dd\	8dd\	.	8a/J)	8f#\L	.	.	8aa\J)	.
8r	.	8ryy	.	8r	.	.	8d\J	.	8A/J	.	8f#/J	.	.	.	.	.	.	.	8A\J	.	8dd\J	8dd\J	.	8raa	8f#\J	.	.	8r	.
8D\	.	8D\yy	.	8r	.	.	8d\	.	8A/	.	8f#/	.	.	.	.	.	.	.	8A\	.	[>4.dd\	4.ryy	.	4raa	8f#\	.	.	4r	.
8r	.	8ryy	.	8d/	Bo	.	8r	.	8r	.	8r	.	.	.	.	.	.	.	8r	.	.	.	.	.	8rc	.	.	.	.
8r	.	8ryy	.	8d/	nad	.	8r	.	8r	.	8r	.	.	.	.	.	.	.	8r	.	.	.	.	8raa	8rc	.	.	8r	.
=17	=17	=17	=17	=17	=17	=17	=17	=17	=17	=17	=17	=17	=17	=17	=17	=17	=17	=17	=17	=17	=17	=17	=17	=17	=17	=17	=17	=17	=17
8D\	.	8D\yy	.	4a/	wszy-	.	8r	.	8r	.	8r	.	2.r	.	2.r	.	2.r	.	2.r	.	2.dd/_>	[<2.dd\	.	(>4a/	2.re	.	2.r	(>4aa\	.
8r	.	8ryy	.	.	.	.	8d\L	.	8A/L	.	8f#/L	.	.	.	.	.	.	.	.	.	.	.	.	.	.	.	.	.	.
8r	.	8ryy	.	8f#/	-stko	.	8d\J	.	8A/J	.	8f#/J	.	.	.	.	.	.	.	.	.	.	.	.	8f#/)	.	.	.	8ff#\)	.
8D\	.	8D\yy	.	4g/	ró-	.	8r	.	8r	.	8r	.	.	.	.	.	.	.	.	.	.	.	.	(>4g/	.	.	.	(>4gg\	.
8r	.	8ryy	.	.	.	.	8d\L	.	8B/L	.	8g/L	.	.	.	.	.	.	.	.	.	.	.	.	.	.	.	.	.	.
8r	.	8ryy	.	8b/	-żę	.	8d\J	.	8B/J	.	8g/J	.	.	.	.	.	.	.	.	.	.	.	.	8b/)	.	.	.	8bb\)	.
!!LO:PB:g=original
=18	=18	=18	=18	=18	=18	=18	=18	=18	=18	=18	=18	=18	=18	=18	=18	=18	=18	=18	=18	=18	=18	=18	=18	=18	=18	=18	=18	=18	=18
!	!	!	!	!	!	!	!	!	!	!	!	!	!	!	!	!	!	!	!	!	!LO:TX:a:t=P:w źródle brak fragmentów ligatur:problem	!	!	!	!	!	!	!	!
8D\	.	8D\yy	.	8b\	wo-	.	8d\	.	8A/	.	8f#/	.	2.r;>	.	2.r;>	.	2.r;>	.	2.r;>	.	8dd/]	8dd\]	.	8dd/	2.re;<	.	2.r;>	8ddd\	.
8r	.	8ryy	.	8d/	-lę	.	8r	.	8r	.	8r	.	.	.	.	.	.	.	.	.	8r	2ryy	.	8r	.	.	.	8r	.
8r;>	.	8r;>yy	.	8r;>	.	.	8r;>	.	8r;>	.	8r;>	.	.	.	.	.	.	.	.	.	8r;>	.	.	8r;>	.	.	.	8r;>	.
4r	.	4ryy	.	4d/	Czas	.	4r	.	4r	.	4d/	.	.	.	.	.	.	.	.	.	4r	.	.	4r	.	.	.	4dd\	.
8r	.	8ryy	.	8d/	też	.	8r	.	8r	.	8d/	.	.	.	.	.	.	.	.	.	8r	8ryy	.	8r	.	.	.	8dd\	.
*	*	*	*	*	*	*	*	*	*	*	*	*	*	*	*	*	*	*	*	*	*v	*v	*	*	*	*	*	*	*
*	*	*	*	*	*	*	*	*	*	*	*	*	*	*	*	*	*	*	*	*	*	*	*v	*v	*	*	*	*
=19	=19	=19	=19	=19	=19	=19	=19	=19	=19	=19	=19	=19	=19	=19	=19	=19	=19	=19	=19	=19	=19	=19	=19	=19	=19	=19	=19
!	!	!	!	!	!	!	!	!	!	!LO:DY:a:rj	!	!	!	!	!	!	!	!	!	!	!	!	!	!	!	!	!
2.r	.	2.ryy	.	4g/	wy-	.	2.r	.	4B/	p	4g/	.	2.r	.	2.r	.	2.r	.	2.r	.	2.r	.	2.r	.	2.r	4gg\	.
.	.	.	.	8g/	-tchnąć	.	.	.	8B/	.	8g/	.	.	.	.	.	.	.	.	.	.	.	.	.	.	8gg\	.
.	.	.	.	4a/	po	.	.	.	4d/	.	4a/	.	.	.	.	.	.	.	.	.	.	.	.	.	.	4aa\	.
.	.	.	.	8a/	po-	.	.	.	8d/	.	8a/	.	.	.	.	.	.	.	.	.	.	.	.	.	.	8aa\	.
=20	=20	=20	=20	=20	=20	=20	=20	=20	=20	=20	=20	=20	=20	=20	=20	=20	=20	=20	=20	=20	=20	=20	=20	=20	=20	=20	=20
4r	.	4ryy	.	8b/	-dró-	.	4r	.	8g/L	.	8b/L	.	2.r	.	2.r	.	2.r	.	2.r	.	2.r	.	2.r	.	2.r	8bb\L	.
.	.	.	.	8g/	-ży,	.	.	.	8B/J	.	8g/J	.	.	.	.	.	.	.	.	.	.	.	.	.	.	8gg\J	.
8r	.	8ryy	.	8r	.	.	8r	.	8r	.	8r	.	.	.	.	.	.	.	.	.	.	.	.	.	.	8r	.
!	!	!	!	!LO:TX:a:Bi:t=/&colon;Edward&colon;/	!	!	!	!	!	!	!	!	!	!	!	!	!	!	!	!	!	!	!	!	!	!	!
!	!LO:DY:b:rj	!	!LO:DY:b:rj	!	!	!	!	!	!	!	!	!	!	!	!	!	!	!	!	!	!	!	!	!	!	!	!
4C/	p	4C/yy	pyy	4e/	Strzez	.	4c\	.	4e/	.	4e/	.	.	.	.	.	.	.	.	.	.	.	.	.	.	4r	.
8AA/	.	8AA/yy	.	8cc\	się	.	8e\	.	8a/	.	8cc\	.	.	.	.	.	.	.	.	.	.	.	.	.	.	8r	.
=21	=21	=21	=21	=21	=21	=21	=21	=21	=21	=21	=21	=21	=21	=21	=21	=21	=21	=21	=21	=21	=21	=21	=21	=21	=21	=21	=21
8D\L	.	8D\Lyy	.	4b\	Pa-	.	8d\L	.	8g/L	.	8b/L	.	2.r	.	2.r	.	2.r	.	2.r	.	2.r	.	2.r	.	2.r	2.r	.
8r	.	8ryy	.	.	.	.	8r	.	8r	.	8r	.	.	.	.	.	.	.	.	.	.	.	.	.	.	.	.
8D\J	.	8D\Jyy	.	8g/	-nie	.	8d\J	.	8gJ 8B/	.	8g/J	.	.	.	.	.	.	.	.	.	.	.	.	.	.	.	.
8D\L	.	8D\Lyy	.	4dd\	Ró-	.	8d\L	.	8f#L 8A/	.	4dd\	.	.	.	.	.	.	.	.	.	.	.	.	.	.	.	.
8r	.	8ryy	.	.	.	.	8r	.	8r	.	.	.	.	.	.	.	.	.	.	.	.	.	.	.	.	.	.
8D\J	.	8D\Jyy	.	8f#/	-ża	.	8A\J	.	8dJ 8c/	.	8f#/	.	.	.	.	.	.	.	.	.	.	.	.	.	.	.	.
=22	=22	=22	=22	=22	=22	=22	=22	=22	=22	=22	=22	=22	=22	=22	=22	=22	=22	=22	=22	=22	=22	=22	=22	=22	=22	=22	=22
*	*	*	*	*	*	*	*	*	*	*	*	*	*	*	*	*	*	*	*	*	*^	*	*	*	*	*	*
8D\L	.	8D\Lyy	.	8a/	ko-	.	8d\L	.	8f#L 8c/	.	8a/L	.	2.r	.	2.r	.	4r	.	4r	.	4r	4rcyy	.	4r	.	2.r	4r	.
8G\J	.	8G\Jyy	.	8g/	-le.	.	8d\J	.	8gJ 8B/	.	8g/J	.	.	.	.	.	.	.	.	.	.	.	.	.	.	.	.	.
8r	.	8ryy	.	8r	.	.	8r	.	8r	.	8r	.	.	.	.	.	8r	.	8r	.	8r	8rcyy	.	8r	.	.	8r	.
8C/	.	8C/yy	.	4r	.	.	8r	.	8r	.	8r	.	.	.	.	.	8e/L	.	4.C/	.	4.ee/	4.cc#\	.	8e'</L	.	.	8ee'>\L	.
.	.	.	.	.	.	.	.	.	.	.	.	.	.	.	.	.	.	.	.	.	.	.	.	(<16qqcc\LL	.	.	(<16qqccc/LL	.
.	.	.	.	.	.	.	.	.	.	.	.	.	.	.	.	.	.	.	.	.	.	.	.	16qqdd\JJ	.	.	16qqddd/JJ	.
8r	.	8ryy	.	.	.	.	8c\L	.	8e/L	.	8a/L	.	.	.	.	.	8cc/	.	.	.	.	.	.	8cc/)	.	.	8ccc\)	.
8r	.	8ryy	.	8r	.	.	8c\J	.	8e/J	.	8a/J	.	.	.	.	.	8a/J	.	.	.	.	.	.	8a'</J	.	.	8aa'>\J	.
!!LO:PB:g=original
=23	=23	=23	=23	=23	=23	=23	=23	=23	=23	=23	=23	=23	=23	=23	=23	=23	=23	=23	=23	=23	=23	=23	=23	=23	=23	=23	=23	=23
*	*	*	*	*	*	*	*	*	*	*	*	*	*	*	*	*	*	*	*	*	*	*	*	*^	*	*	*	*
8D\	.	8D\yy	.	2.r	.	.	8r	.	8r	.	8r	.	2.ryy	.	4r	.	8d/L	.	8D\	.	8dd/	8dd\	.	8d'</L	4.ryy	.	8dd\L	8dd\L	.
.	.	.	.	.	.	.	.	.	.	.	.	.	.	.	.	.	.	.	.	.	.	.	.	(<16qqb\LL	.	.	(<16qqbb/LL	(<16qqbb/LL	.
.	.	.	.	.	.	.	.	.	.	.	.	.	.	.	.	.	.	.	.	.	.	.	.	16qqcc\JJ	.	.	16qqccc/JJ	16qqccc/JJ	.
8r	.	8ryy	.	.	.	.	8B/L	.	8d/L	.	8g/L	.	.	.	.	.	8b/	.	8r	.	8r	8rcyy	.	8b/)	.	.	8bb\)	8bb\)	.
8r	.	8ryy	.	.	.	.	8B/J	.	8d/J	.	8g/J	.	.	.	8r	.	8g/J	.	8r	.	8r	8rcyy	.	8g'</J	.	.	8gg\J	8gg\J	.
*	*	*	*	*	*	*	*	*	*tremolo	*	*tremolo	*	*	*	*	*	*	*	*tremolo	*	*tremolo	*tremolo	*	*	*tremolo	*	*	*	*
!	!	!	!	!	!	!	!LO:TX:t=P:problem:mixed beam	!	!	!	!	!	!	!	!	!	!	!	!	!	!	!	!	!	!	!	!	!	!
!	!LO:DY:b:rj	!	!LO:DY:b:rjLO:DY:b:rj	!	!	!	!	!LO:DY:b:rj	!	!	!	!LO:DY:b:rj	!	!	!	!	!	!	!	!	!	!	!	!	!	!LO:DY:b:rj	!	!	!LO:DY:b:rj
8D\L	f	8D\Lyy	fyy	.	.	.	8d\L	f	8dL 8c/	.	8a/L	f	.	.	4.D\	.	4.a/	.	8D\L	.	8dd/L	8cc#\L	.	16cc#X/LL	8a\L	f	(>16cc#X\LL	(>16ccc#X\LL	f
.	.	.	.	.	.	.	.	.	.	.	.	.	.	.	.	.	.	.	.	.	.	.	.	16dd/	.	.	16dd\	16ddd\	.
8D\	.	8D\yy	.	.	.	.	8d\	.	8d 8c/	.	8a/	.	.	.	.	.	.	.	8D\	.	8dd/	8cc#\	.	16dd#X/	8a\	.	16dd#X\	16ddd#X\	.
.	.	.	.	.	.	.	.	.	.	.	.	.	.	.	.	.	.	.	.	.	.	.	.	16ee/	.	.	16ee\	16eee\	.
8D\J	.	8D\Jyy	.	.	.	.	8D/J	.	8dJ 8c/	.	8a/J	.	.	.	.	.	.	.	8D\J	.	8dd/J	8cc#\J	.	16ee#X/	8a\J	.	16ee#X\	16eee#X\	.
.	.	.	.	.	.	.	.	.	.	.	.	.	.	.	.	.	.	.	.	.	.	.	.	16ff#/JJ	.	.	16ff#\JJ	16fff#\JJ	.
*	*	*	*	*	*	*	*	*	*Xtremolo	*	*Xtremolo	*	*	*	*	*	*	*	*Xtremolo	*	*Xtremolo	*Xtremolo	*	*	*Xtremolo	*	*	*	*
=24	=24	=24	=24	=24	=24	=24	=24	=24	=24	=24	=24	=24	=24	=24	=24	=24	=24	=24	=24	=24	=24	=24	=24	=24	=24	=24	=24	=24	=24
4G\	.	4G\yy	.	4r	.	.	4G/	.	4d 4B/	.	4g/	.	2ryy	.	4G\	.	4g/	.	4G\	.	4dd/	4b\	.	4gg/	4b\	.	4gg\)	4ggg\)	.
8r	.	4ryy	.	8r	.	.	8r	.	8r	.	8r	.	.	.	8r	.	8r	.	8r	.	8r	4ryy	.	8r	4ryy	.	8r	8r	.
8r	.	.	.	8r	.	.	8r	.	8r	.	8r	.	.	.	8r	.	8r	.	8r	.	8r	.	.	8r	.	.	8r	8r	.
*	*	*	*	*	*	*	*	*	*	*	*	*	*	*	*	*	*	*	*	*	*v	*v	*	*	*	*	*	*	*
*	*	*	*	*	*	*	*	*	*	*	*	*	*	*	*	*	*	*	*	*	*	*	*v	*v	*	*	*	*
==	==	==	==	==	==	==	==	==	==	==	==	==	==	==	==	==	==	==	==	==	==	==	==	==	==	==	==
*-	*-	*-	*-	*-	*-	*-	*-	*-	*-	*-	*-	*-	*-	*-	*-	*-	*-	*-	*-	*-	*-	*-	*-	*-	*-	*-	*-
!!title: @{OTL};
!!!RDF**kern: > = above
!!!RDF**kern: < = below
!!!RDF**kern: | = vertical stroke
!!!RDF**kern: N = linked
!!!RDF**kern: i = editorial accidental
!!!EED: Wojciech Jakubiak-Danek
!!!EST: 2021-05-09
!!!URL-scan: http://repozytorium.nifc.pl/skany/pl-wtm-nut--r1664
!!!ONB-nifc: UWAGA: skany 0014-0016
!!!ENC: Mateusz Solarz
!!!END: 2021-04-27
